!!!!SEGMENT: pl-kk--kk-i-382--081-005_richling--msza-na-3-glosy-benedictus.krn
!!!cenid: 18xx:1617
!!!COM: Richling
!!!COM-rismID: pe50045950
!!!CDT:
!!!CNT:
!!!OPR: Msza na 3 głosy
!!!OTL: Benedictus
!!!OMV: 005
!!!PDT:
!!!AGN: Sacred; Mass
!!!YEC: Copyright 2022 Narodowy Instytut Fryderyka Chopina (https://polishscores.org)
!!!YEM: License CC-BY-4.0 (https://creativecommons.org/licenses/by/4.0)
!!!SMS-siglum: PL-Kk
!!!SMS-shelfmark: Kk.I.382
!!!SMS-shelfwork: 081-005 M
!!!SMS-variant:
!!!SMS-altvar:
!!!NIFC-rismSourceID: 1001139027
!!!NIFC-rismChildID: 1001142973
!!!NIFC-islandoraID: pl-kk:6162
!!!URL-pdf-islandora: https://repozytorium.nifc.pl/islandora/object/pl-kk%3A6162/datastream/PDF/view
!!!URL-scan: https://polish.musicsources.pl/pl/lokalizacje/galeria/rekopisy/5994 @EN{Scan on Polish Music Sources Website} @PL{Skany w portalu Dziedzictwo Muzyki Polskiej w otwartym dostępie}
!!!IIIF:
!!!ONB-nifc: S/T1 od 0065, A/B1 od 0208, B2 od 0282. Części Mszy: 1. Requiem, 2. Dies irae, 3. Offertorium, 4. Sanctus, 5. Benedictus, 6. Agnus, 7. Graduale, 8. Offertorium
!!!AIN: 1 alto 1 bass 1 tenor
!!!key:
**kern	**text	**kern	**text	**kern	**text
*part3	*	*part2	*	*part1	*
*staff3	*	*staff2	*	*staff1	*
*Ibass	*	*Ialto	*	*Itenor	*
*I"Basso II	*	*I"Alto. vel Basso I	*	*I"Soprano vel Tenore I.	*
*I'B 2	*	*I'A/B 1	*	*I'S/T 1	*
*	*	*	*	*ITrd7c12	*
*clefF4	*	*clefF4	*	*clefG2	*
*k[b-e-]	*	*k[b-e-]	*	*k[b-e-]	*
*g:	*	*g:	*	*g:	*
*M4/4	*	*M4/4	*	*M4/4	*
*met(c)	*	*met(c)	*	*met(c)	*
=1	=1	=1	=1	=1	=1
*	*	*2\right	*	*2\right	*
!	!	!	!	!LO:TX:a:t=Con motto	!
!	!	!LO:TX:t=P:Rychling:problem=dopisek ołówkiem	!	!LO:TX:t=P:problem=all/middle or left	!
!LO:TX:a:t=Con motto	!	!LO:TX:a:t=Con motto	!	!LO:TX:t=P:problem=all\right&colon; global	!
4.G\	Be-	2G\	Be-	2B-\	Be-
8F\	.	.	.	.	.
(4E-\	-ne-	2G\	-ne-	2B-\	-ne-
4D\)	.	.	.	.	.
=2	=2	=2	=2	=2	=2
*4/left	*	*	*	*	*
4C#X/	-dic-	4G\	-dic-	4A/	-dic-
4D\	-tus	4F#X\	-tus	4A/	-tus
4r	.	4r	.	4r	.
4Cn/	qui	4F#\	qui	4A/	qui
=3	=3	=3	=3	=3	=3
*2/left	*	*	*	*	*
2BB-/	ve-	2G\	ve-	2d\	ve-
4BB-/	-nit	(8D\L	-nit	4G/	-nit
.	.	8E-\J)	.	.	.
4BBn/	qui	(8F\L	qui	4G/	qui
.	.	8D\J)	.	.	.
!LO:LB:g=original	!	!LO:PB:g=original	!	!	!
=4	=4	=4	=4	=4	=4
(4C/	ve-	(8E-\L	ve-	2e-\	ve-
.	.	8G\)	.	.	.
8AA/L	.	8c'\	-nit	.	.
8C/J)	.	8B-'\J	in	.	.
8F\L	-nit	(8A\L	no-	4c\	-nit
8E-\	.	8G\J)	.	.	.
8D\	in	8F'\L	-mi-	8B-\L	in
8C\J	.	8E-'\J	-ne	8c\J	.
!	!	!	!	!LO:LB:g=original	!
=5	=5	=5	=5	=5-	=5
2BB-/	no-	1D\	Do-	(4.d\	no-
.	.	.	.	8B-\)	.
4BB-/	-mi-	.	.	4F/	mi-
4BB-/	-ne	.	.	4G/	-ne
=6	=6	=6	=6	=6	=6
4.AA/	Do-	4.C#X/	.	4.A/	Do-
8C#X/	-mi-	8En\	-mi-	8A/	-mi-
4En\	-ni	4G\	-ni	4A/	-ni.
4C#/	in	4E\	in	4r	.
=7	=7	=7	=7	=7	=7
*	*	*	*	*2/left	*
4.D\	no-	2F\	no-	2A/	Be-
8C/	.	.	.	.	.
4BB-/	-mi-	4F\	-mi-	2d\	-ne-
4AA/	-ne	4F\	-ne	.	.
!LO:LB:g=original	!	!	!	!	!
=8	=8	=8	=8	=8	=8
8GG#X/	Do-	8F\	Do-	4d\	-dic-
8GG#/	-mi-	8F\	-mi-	.	.
4AA/	-ni	4En\	-ni	4c#X\	-tus
4r	.	4r	.	4r	.
!	!	!	!	!LO:TX:t=P:problem=♮ ołówkiem	!
!	!	!	!	!LO:SIC:v:s=4een	!
4A\	in	4c#X\	qui	4e-\	qui
=9	=9	=9	=9	=9	=9
(1En\	no-	(8d\L	ve-	2e\	ve-
.	.	8Bn\	.	.	.
.	.	8G#X\	.	.	.
.	.	8A\J)	.	.	.
.	.	(8B\L	-nit	4.d\	-nit
.	.	8G#\	.	.	.
.	.	8En\)	.	.	.
.	.	8F#X\J	in	8c\	in
=10	=10	=10	=10	=10	=10
8F\L	.	[2G#X\	no-	(1B/	no-
8D\	.	.	.	.	.
8BBn\	.	.	.	.	.
8C\J)	.	.	.	.	.
4D\	-mi-	2G#\]	.	.	.
4D-X\	-ne	.	.	.	.
!	!	!	!	!LO:LB:g=original	!
=11	=11	=11	=11	=11	=11
[>2C/	Do-	(4A\	.	4c\	.
.	.	4F\)	.	4A/	.
(8C\L]	.	4.B-\	-mi-	4.d\)	-mi-
8D\	.	.	.	.	.
8En\	.	.	.	.	.
8F\J)	.	8A\	-ne	8c\	-ne
=12	=12	=12	=12	=12	=12
8G\L	.	4.G\	Do-	4.B-\	Do-
8En\	.	.	.	.	.
(8C\	-mi-	.	.	.	.
8E\J)	.	8G\	-mi-	8B-\	-mi-
4F\	-ni	4F\	-ni	4A/	-ni.
4r	.	4r	.	4r	.
!LO:LB:g=original	!	!LO:LB:g=original	!	!	!
=13	=13	=13	=13	=13	=13
(4.F\	Be-	[1F\	Be-	2A/	Be-
8En\)	.	.	.	.	.
(4D\	-ne-	.	.	2A/	-ne-
4C/)	.	.	.	.	.
=14	=14	=14	=14	=14	=14
(>4.BBn/	-dic-	2F\]	.	2A-X/	-dic-
8C/)	.	.	.	.	.
4D\	-tus	2F\	-ne-	4G/	-tus
4BB/	qui	.	.	4G/	qui
=15	=15	=15	=15	=15	=15
(>4.C/	ve-	4F\	-dic-	2G/	ve-
.	.	(<4En\	-tus	.	.
8BB-X/)	.	.	.	.	.
4AA/	-nit	4F\)	.	4c\	-nit
(8BB-/L	in	4F\	qui	(8d\L	in
8D/J)	.	.	.	8B-\J)	.
!	!	!	!	!LO:PB:g=original	!
=16	=16	=16	=16	=16	=16
4.D\	no-	2F\	ve-	(4A/	no-
.	.	.	.	4G#X/)	.
8D-X\	.	.	.	.	.
4C/	-mi-	4F\	-nit	4A/	-mi-
!LO:TX:t=P:problem=♮ ołówkiem	!	!	!	!	!
!LO:SIC:v:s=8Dn	!	!	!	!	!
(8D-\L	-ne	4A\	in	(8f\L	-ne
8F\J)	.	.	.	8d\J)	.
!LO:LB:g=original	!	!	!	!	!
=17	=17	=17	=17	=17	=17
!	!	!	!	!LO:TX:t=P:problem=łuk ołówkiem	!
4F\	Do-	(4A\	no-	4c\	Do-
4F\	-mi-	4A-X\)	.	4B\	.
*2\right	*	*	*	*	*
2En\	-ni	4G\	-mi-	4c\	-mi-
.	.	4G\	-ne	4B-X\	-ni,
=18	=18	=18	=18	=18	=18
(8F\L	no-	[2F\	Do-	2A/	no-
8En\	.	.	.	.	.
8D\	.	.	.	.	.
8C#X\J)	.	.	.	.	.
4D\	-mi-	4F\]	.	4A/	-mi-
(4BB-/	-ne	4G\	-mi-	4B-\	-ne
!	!	!LO:LB:g=original	!	!	!
=19	=19	=19	=19	=19	=19
4C/)	.	4En\	-ni	(4G/	Do-
8r	.	8r	.	4c\	.
(8G\	Do-	8B-\	qui	.	.
4F\)	.	(4A\	ve-	4d\	.
4C/	-mi-	4G\)	.	4e\)	-mi-
=20	=20	=20	=20	=20	=20
2F\	-ni	2A\	-nit	2f\	-ni,
4F\	Be-	2r	.	2r	.
4F\	-ne-	.	.	.	.
!LO:LB:g=original	!	!	!	!	!
=21	=21	=21	=21	=21	=21
2F\	-dic-	[2A\	qui	[2c\	Be-
4G-X\	-tus	4A\]	.	4c\]	.
4F\	qui	4A\	ve-	4c\	-ne-
!	!	!	!	!LO:LB:g=original	!
=22	=22	=22	=22	=22	=22
2En\	ve-	(2B-\	-nit	2d-X\	-dic-
4F\	-nit	4A\)	.	4c\	-tus
8r	.	8r	.	8r	.
8E-X\	in	8F\	in	8A/	qui
=23	=23	=23	=23	=23	=23
2D\	no-	2F\	no-	2B-\	ve-
4AA/	-mi-	4F\	-mi-	4e-\	-nit
4BB-/	-ne	(8F\L	-ne	4d\	in
.	.	8G\J)	.	.	.
!	!	!LO:LB:g=original	!	!	!
=24	=24	=24	=24	=24	=24
4.F\	Do-	4.A\	Do-	4.c\	no-
8F\	-mi-	8G#X\	-mi-	8d\	-mi-
4F\	-ni	4A\	-ni	4c\	-ne
4r	.	4F\	in	4F/	in
=25	=25	=25	=25	=25	=25
(4.B-\	Be-	2B-\	no-	2d\	no-
8A\)	.	.	.	.	.
(4G\	-ne-	4B-\	-mi-	4d\	-mi-
4F\)	.	4B-\	-ne	4d-X\	-ne
!LO:LB:g=original	!	!	!	!	!
=26	=26	=26	=26	=26	=26
4En\	-dic-	8B-\	do-	8c\	Do-
.	.	8B-\	-mi-	8c\	-mi-
4F\	-tus	4A\	-ni	4c\	-ni
4r	.	4r	.	4r	.
4E-X\	qui	4F\	qui	4A/	in
!	!	!	!	!LO:LB:g=original	!
=27	=27	=27	=27	=27	=27
(4.D\	ve-	2F\	ve-	2B-\	no-
8C#X/)	.	.	.	.	.
4D\	-nit	(8F\L	-nit	4B-\	-mi-
.	.	8G\)	.	.	.
!	!	!	!	!LO:N:acc=#	!
4D\	in	(8A-X\	in	4Bn\	-ne
.	.	8F\J)	.	.	.
!	!	!LO:LB:g=original	!	!	!
=28	=28	=28	=28	=28	=28
!	!	!	!	!LO:TX:t=P:problem=łuk ołówkiem	!
(4E-\	no-	(8E-\L	no-	4c\	Do-
.	.	8G\	.	.	.
4C/)	.	8c\	.	[4e-\	.
.	.	8B-\J)	.	.	.
4.F\	-mi-	4.A-X\	-mi-	4e-\]	.
.	.	.	.	(8d\L	.
8E-\	-ne	8G\	-ne	8e-\J)	.
=29	=29	=29	=29	=29	=29
!	!	!	!	!LO:TX:t=P:problem=łuk ołówkiem	!
(2.D\	Do-	4F\	Do-	4.f\	-mi-
.	.	4B-\	-mi-	.	.
.	.	.	.	8d\	.
.	.	4F\	-ni	4B-\	-ni
4BB-/	.	8G\L	in	4r	.
.	.	8A-X\J	.	.	.
=30	=30	=30	=30	=30	=30
4.E-\	.	2G\	no-	2B-\	Be-
8D\)	.	.	.	.	.
4C/	-mi-	4G\	-mi-	2e-\	-ne-
4BB-/	-ni	4G\	-ne	.	.
!LO:LB:g=original	!	!	!	!	!
=31	=31	=31	=31	=31	=31
8AA/	[Do]-	8G-X\	Do-	4e-\	-di-
8AA/	-mi-	8G-\	-mi-	.	.
4BB-/	-ni	4F\	-ni	4d\	-ctus
4r	.	4r	.	4r	.
4BB-/	qui	4F\	qui	4d\	qui
!	!	!LO:LB:g=original	!	!	!
=32	=32	=32	=32	=32	=32
4BBn/	ve-	4A-X\	ve-	4f\	ve-
4C/	-nit	4G\	-nit	4e-\	-nit
!	!	!	!	!LO:LB:g=original	!
4r	.	4r	.	4r	.
4C/	in	4G\	in	[4e-\	in
=33	=33	=33	=33	=33	=33
2F\	no-	2A-X\	no-	4e-\]	.
.	.	.	.	4d\	no-
4E-\	-mi-	4G\	-mi-	4e-\	-mi-
4E-\	-ne	4G\	-ne	4c\	-ne
=34	=34	=34	=34	=34	=34
4.D\	Do-	(8A-X\L	Do-	4.B-\	Do-
.	.	8G\)	.	.	.
.	.	(8F\	-mi-	.	.
8D\	-mi-	8A-\J)	.	8c\	-mi-
4E-\	-ni	4G\	-ni	4B-\	-ni
8E-\L	qui	4G\	in	4B-\	in
8D\J	.	.	.	.	.
!LO:PB:g=original	!	!	!	!	!
=35	=35	=35	=35	=35	=35
2C/	ve-	2G\	no-	2A/	no-
4C#X/	-nit	4G\	-mi-	4A/	-mi-
4C#/	in	4G\	-ne	4A/	-ne
=36	=36	=36	=36	=36	=36
4.D\	no-	4.F#X\	Do-	4.A/	Do-
8D\	-mi-	8En\	-mi-	8G/	-mi-
4D\	-ne	4F#\	-ni	4A/	-ni
4r	.	4r	.	4r	.
!	!	!LO:LB:g=original	!	!	!
=37	=37	=37	=37	=37	=37
4r	.	2G\	Be-	2B-\	Be-
(8G\L	Be-	.	.	.	.
8F\J	.	.	.	.	.
8E-\L	.	2G\	-ne-	2B-\	-ne-
8F\)	.	.	.	.	.
(8E-\	-ne-	.	.	.	.
8D\J)	.	.	.	.	.
!	!	!	!	!LO:LB:g=original	!
=38	=38	=38	=38	=38	=38
4C#X/	-dic-	(4G\	-dic-	8A/L	-dic-
.	.	.	.	8B-/J	.
4D\	-tus	8F#X\L	.	4A/	-tus
.	.	8En\J)	.	.	.
4r	.	(8F#\L	-tus	2d\	qui
.	.	8G\)	.	.	.
4Cn/	qui	(8A\	qui	.	.
.	.	8F#\J)	.	.	.
!LO:LB:g=original	!	!	!	!	!
=39	=39	=39	=39	=39	=39
2BBn/	ve-	2G\	ve-	(8d\L	ve-
.	.	.	.	8e-X\	.
.	.	.	.	8f\	.
.	.	.	.	8d\J)	.
(8C/L	-nit	4G\	-nit	4e-\	-nit
8D/J)	.	.	.	.	.
(8E-\L	in	(8G\L	in	4c\	in
8C\J)	.	8A\J)	.	.	.
=40	=40	=40	=40	=40	=40
4AA/	no-	(8F#X\L	no-	2c\	no-
.	.	8G\	.	.	.
4D\	-mi-	8A\	.	.	.
.	.	8F#\J)	.	.	.
4GG/	-ne	(8G\L	-mi-	4.B-\	-mi-
.	.	8Fn\)	.	.	.
4r	.	(8E-\	ne	.	.
.	.	8D\J)	.	8B-\	-ne
!	!	!LO:LB:g=original	!	!	!
=41	=41	=41	=41	=41	=41
(>2.C/	Do-	2.E-\	Do-	(4B-\	Do-
.	.	.	.	4A/	.
.	.	.	.	4A-X/)	.
(4C#X/)	.	4En\	-mi-	4G/	-mi-
=42	=42	=42	=42	=42	=42
4D\	.	2.D\	-ni	2F#X/	-ni
4Cn/	.	.	.	.	.
4BB-/)	.	.	.	(4G/	Do-
4C/	-mi-	(4G\	Do-	4e-\	.
!	!	!	!	!LO:LB:g=original	!
=43	=43	=43	=43	=43	=43
2D\	-ni	8F#X\L	.	2.d\	.
.	.	8En\	.	.	.
.	.	8F#\	.	.	.
.	.	8A\J	.	.	.
4r	.	8c\L	.	.	.
.	.	8B-\)	.	.	.
8D\	Do-	(8c\	-mi-	4d\)	-mi-
8D\	-mi-	8A\J)	.	.	.
=44	=44	=44	=44	=44	=44
1G\;	-ni	1B-\	-ni	1d/	-ni
==	==	==	==	==	==
*-	*-	*-	*-	*-	*-
!!!system-decoration: [(s1,s2,s3)]
!!!RDF**kern: > = above
!!!RDF**kern: < = below
!!!EED: Leszek Kubiak
!!!EEV: 2021-03-29
!!!ENC: Krzysztof Stępień
!!!END: 2021-03-06
